symbolic/32x32/places/folder-white-onedrive.svg

<svg xmlns="http://www.w3.org/2000/svg" width="32" height="32" version="1">
 <rect style="opacity:0.2" width="28" height="18" x="2" y="11" rx="1.4" ry="1.4"/>
 <path style="fill:#cccccc" d="M 2,22.6 C 2,23.376 2.6244,24 3.4,24 H 28.6 C 29.376,24 30,23.376 30,22.6 V 7.4 C 30,6.6244 29.376,6 28.6,6 H 16 C 13.9,6 13.2,3 11.1,3 H 3.4 C 2.6244,3 2,3.6244 2,4.4"/>
 <rect style="opacity:0.2" width="28" height="18" x="2" y="9" rx="1.4" ry="1.4"/>
 <rect style="fill:#ffffff" width="24" height="11" x="4" y="8" rx="1.4" ry="1.4"/>
 <rect style="fill:#e4e4e4" width="28" height="18" x="2" y="10" rx="1.4" ry="1.4"/>
 <path style="opacity:0.1;fill:#ffffff" d="M 3.4004,3 C 2.6248,3 2,3.6248 2,4.4004 V 5.4004 C 2,4.6248 2.6248,4 3.4004,4 H 11.1 C 13.2,4 13.9,7 16,7 H 28.6 C 29.375,7 30,7.6248 30,8.4004 V 7.4004 C 30,6.6248 29.375,6 28.6,6 H 16 C 13.9,6 13.2,3 11.1,3 Z"/>
 <path style="fill:#4f4f4f" d="M 17,14.000047 A 3,3 0 0 0 14.041016,16.535203 2.5,2.5 0 0 0 12.5,16.000047 2.5,2.5 0 0 0 10.044922,18.043016 2.5,2.5 0 0 0 8,20.500047 a 2.5,2.5 0 0 0 2.5,2.5 2.5,2.5 0 0 0 0.658203,-0.0918 C 11.064537,22.619495 11,22.318204 11,22.000047 c 0,-1.263279 0.901705,-2.150952 2.017578,-2.589844 0.05097,-1.877963 1.593005,-3.410156 3.482422,-3.410156 1.388328,9.91e-4 2.405625,0.946566 2.966797,2.146484 0.118955,-0.02267 0.231371,-0.06772 0.345703,-0.103515 A 3,3 0 0 0 20,17.000047 a 3,3 0 0 0 -3,-3 z m -0.5,3 c -1.380712,0 -2.5,1.119288 -2.5,2.5 0.0012,0.168734 0.01957,0.33691 0.05469,0.501953 C 14.03647,20.0011 14.01824,20.0004 14,20 c -1.104569,0 -2,0.89543 -2,2 0,1.104569 0.895431,2 2,2 h 8.5 C 23.328427,24 24,23.328427 24,22.5 24,21.671573 23.328427,21 22.5,21 c -0.171876,8.57e-4 -0.342325,0.03125 -0.503906,0.08984 0.002,-0.02991 0.0033,-0.05987 0.0039,-0.08984 0,-1.10457 -0.895431,-2 -2,-2 -0.35591,7.81e-4 -0.705164,0.09652 -1.011719,0.277344 C 18.873057,17.98879 17.793742,17.00097 16.5,17.000047 Z"/>
</svg>

<svg xmlns="http://www.w3.org/2000/svg" width="32" height="32" version="1"><rect style="opacity:.2" width="28" height="18" x="2" y="11" rx="1.4" ry="1.4"/><path style="fill:#ccc" d="M2 22.6c0 .776.624 1.4 1.4 1.4h25.2c.776 0 1.4-.624 1.4-1.4V7.4c0-.776-.624-1.4-1.4-1.4H16c-2.1 0-2.8-3-4.9-3H3.4C2.624 3 2 3.624 2 4.4"/><rect style="opacity:.2" width="28" height="18" x="2" y="9" rx="1.4" ry="1.4"/><rect style="fill:#fff" width="24" height="11" x="4" y="8" rx="1.4" ry="1.4"/><rect style="fill:#e4e4e4" width="28" height="18" x="2" y="10" rx="1.4" ry="1.4"/><path style="opacity:.1;fill:#fff" d="M3.4 3C2.625 3 2 3.625 2 4.4v1C2 4.625 2.625 4 3.4 4h7.7c2.1 0 2.8 3 4.9 3h12.6c.775 0 1.4.625 1.4 1.4v-1c0-.775-.625-1.4-1.4-1.4H16c-2.1 0-2.8-3-4.9-3z"/><path style="fill:#4f4f4f" d="M17 14a3 3 0 0 0-2.959 2.535A2.5 2.5 0 0 0 12.5 16a2.5 2.5 0 0 0-2.455 2.043A2.5 2.5 0 0 0 8 20.5a2.5 2.5 0 0 0 2.5 2.5 2.5 2.5 0 0 0 .658-.092A2.929 2.929 0 0 1 11 22c0-1.263.902-2.15 2.018-2.59.05-1.878 1.593-3.41 3.482-3.41 1.388.001 2.406.947 2.967 2.147.119-.023.231-.068.346-.104A3 3 0 0 0 20 17a3 3 0 0 0-3-3zm-.5 3a2.5 2.5 0 0 0-2.5 2.5c.001.169.02.337.055.502L14 20a2 2 0 1 0 0 4h8.5a1.5 1.5 0 0 0 0-3 1.5 1.5 0 0 0-.504.09L22 21a2 2 0 0 0-3.012-1.723A2.5 2.5 0 0 0 16.5 17z"/></svg>
